X:6345
T:Sur les bords de la Rivière
O:england
S:MCTB 1
M:3/4
L:1/4
K:G
DGA|B2c|B2A|G3|\
BAB|d2G|B3|A3:|\
AAA|A3|ABc|d3|
dcd|e2e|d2c|BGA|\
B3|AdB|A3|GGA|\
AdB|A3|G3|]


